X:167
T: Macht der Liebe (2-69) S. 209
N: P0942
O: Lothringen
S: PINCK, Louis: Verklingende Weisen, Bd 2, Metz 1928]
R: Soldatenlied, Liebeslied]
M: 3/4
L: 1/8
K: G
D2 | D2G2G2 | G2A2B2 | B2d3d | d4
BB | B2A2G2 | B2A2G2 | G2F2G2 | D2
D2D2 | B4B2 | B3BG2 | G3EE2 | c4z2 | z2
c2c2 | B4c2 | d2F2F2 | A2G3F | G4
G2 | d6 | eddddg | B2d3c | B6 |
A2B2c2 | d3cB2 | A6 |
G3ABc | d6 | eddddg | B2d3c | B6 |
A2B2c2 | d2c2B2 | A6 | G4

@@@ Tune index: 7717
